src/assets/icons/message-pick.svg

<svg width="48" height="50" viewBox="0 0 48 50" fill="none" xmlns="http://www.w3.org/2000/svg">
<rect y="0.992188" width="48" height="48.0022" rx="16" fill="#BFFFC8"/>
<path d="M21.3333 28.8612C19.7667 28.8612 18.2905 28.5794 16.994 28.082C15.6867 29.1049 14.0828 29.7282 12.3789 29.9068C12.3666 29.9081 12.3542 29.9088 12.3418 29.9088C12.1861 29.9088 12.0455 29.8047 12.0077 29.6563C11.9669 29.4912 12.0947 29.3896 12.2213 29.2686C12.847 28.6669 13.6056 28.194 13.9022 26.1729C12.709 25.0291 12 23.6014 12 22.0517C12 18.2905 16.179 15.2422 21.3333 15.2422C26.4876 15.2422 30.6667 18.2905 30.6667 22.0517C30.6666 25.8155 26.4876 28.8612 21.3333 28.8612ZM35.7944 33.3267C35.2134 32.7798 34.5091 32.3498 34.2336 30.5125C37.1006 27.8221 36.4074 23.9735 32.6639 21.8848C32.6652 21.9404 32.6666 21.9959 32.6666 22.0517C32.6666 27.1556 27.2673 31.0681 20.8228 30.8526C22.4112 32.1426 24.739 32.9564 27.3333 32.9564C28.788 32.9564 30.1587 32.7002 31.3626 32.2481C32.5765 33.178 34.0659 33.7446 35.6482 33.907C35.8059 33.9235 35.9549 33.8248 35.9927 33.6792C36.0307 33.5292 35.912 33.4368 35.7944 33.3267Z" fill="#077453"/>
</svg>

<svg width="48" height="50" fill="none" xmlns="http://www.w3.org/2000/svg"><rect y=".992" width="48" height="48.002" rx="16" fill="#BFFFC8"/><path d="M21.333 28.861c-1.566 0-3.042-.282-4.339-.779-1.307 1.023-2.911 1.646-4.615 1.825a.344.344 0 0 1-.371-.25c-.041-.166.087-.267.213-.388.626-.602 1.385-1.075 1.681-3.096C12.71 25.029 12 23.6 12 22.052c0-3.761 4.179-6.81 9.333-6.81 5.155 0 9.334 3.049 9.334 6.81 0 3.764-4.18 6.81-9.334 6.81zm14.461 4.466c-.58-.547-1.285-.977-1.56-2.814 2.867-2.69 2.173-6.54-1.57-8.628.001.055.003.11.003.167 0 5.104-5.4 9.016-11.844 8.8 1.588 1.29 3.916 2.104 6.51 2.104 1.455 0 2.826-.256 4.03-.708 1.214.93 2.703 1.497 4.285 1.659a.32.32 0 0 0 .345-.228c.038-.15-.081-.242-.199-.352z" fill="#077453"/></svg>
